X: 32886
T: Portrush
R: slip jig
M: 9/8
K: Amajor
Ace agf ece|Ace agf e2 a|Ace agf ecA|BcB Bce f2 e|
Ace agf ece|Ace agf e2 c|Ace agf ecA|BcB Bce f2 e:|
|:cde ece a2 e|cde ece dcB|cde ece a2 e|fgf f2 e fga|
cde ece a2 e|cde ece dcB|cde ece a2 e|fgf f2 e dcB:|

